X: 20
T:Toriad y Dydd
T:The Dawn of Day
M:C
L:1/8
Q:120
C:Trad
S:51 Welsh Airs
R:
A:Wales
H:From a facsimile c.1840: A Choice Collection of Fifty-One Welsh Airs
H:adapted for The Harp, Piano-Forte, Harpsichord,
H:Violin, or Flute by Edward Jones
H:"Harper to His Late Majesty King George IV, when
H:Prince of Wales".
Z:brian_martin12345@yahoo.com
K:Am
A|AE E>c cBzc|A>cBA^G3A|E>FD>E C>DB,>C|A,>A B>^GA2z:||!
c/d/|ecc>e edzd|ecced3c|BdBG BdBG|zccBc3d|!
ecde fedc|A/B/c/B/ d/c/B/A/^G3A|E>AD>A C>AB,>A|A,>A B>^GA3:||
